svgs/cco/person-check-o.svg

<svg xmlns="http://www.w3.org/2000/svg" viewBox="0 0 16 16" class="symbol symbol-person-check-o" aria-labelledby="title" role="img"><title id="title">person-check-o icon</title><g data-name="Layer 1"><path class="cls-1" d="M11.749 14.605l-.519-.446-1.371-1.371a.657.657 0 0 1 .93-.93l.924.924 2.447-2.447a.657.657 0 0 1 .93.93zM6.714 7.936a3.914 3.914 0 1 1 3.914-3.914 3.918 3.918 0 0 1-3.914 3.914zm0-6.512a2.6 2.6 0 1 0 2.6 2.6 2.6 2.6 0 0 0-2.6-2.6z" role="presentation"/><path class="cls-1" d="M8.634 15.891H2.88a2.065 2.065 0 0 1-2.062-2.062v-3.172a2.485 2.485 0 0 1 1.594-2.311l4.3-1.633 4.44 1.687a.657.657 0 1 1-.466 1.229l-3.972-1.51-3.835 1.456a1.165 1.165 0 0 0-.747 1.082v3.172a.749.749 0 0 0 .748.747h5.754a.657.657 0 1 1 0 1.315z" role="presentation"/></g></svg>

<svg xmlns="http://www.w3.org/2000/svg" viewBox="0 0 16 16" aria-labelledby="title" role="img" class="symbol symbol-person-check-o"><title id="title">person-check-o icon</title><g id="Layer_1" data-name="Layer 1"><path d="M11.75,14.61l-.52-.45L9.86,12.79a.66.66,0,0,1,.93-.93l.92.92,2.45-2.45a.66.66,0,0,1,.93.93Z" style="fill:#010101" role="presentation"/><path d="M6.71,7.94A3.91,3.91,0,1,1,10.63,4,3.92,3.92,0,0,1,6.71,7.94Zm0-6.51A2.6,2.6,0,1,0,9.31,4,2.6,2.6,0,0,0,6.71,1.42Z" style="fill:#010101" role="presentation"/><path d="M8.63,15.89H2.88A2.06,2.06,0,0,1,.82,13.83V10.66A2.48,2.48,0,0,1,2.41,8.35l4.3-1.63L11.15,8.4a.66.66,0,1,1-.47,1.23l-4-1.51L2.88,9.57a1.16,1.16,0,0,0-.75,1.08v3.17a.75.75,0,0,0,.75.75H8.63a.66.66,0,1,1,0,1.31Z" style="fill:#010101" role="presentation"/></g></svg>
